!!!OTL: BRUEDER STELLT DAS JAUCHZEN EIN
!!!ARE: Europa, Mitteleuropa, Deutschland
!!!SCT: E1688A
!!!YEM: Copyright 1995, estate of Helmut Schaffrath.
**kern
*ICvox
*Ivox
*M3/4
*k[b-]
*d:
=1
{8.A
16A
4A
4d
=2
8.cn
16B-
2A}
=3
{8.Fn
16E
4Fn
4G
=4
4A
2A}
=5
{8.A
16A
4A
4d
=6
8.cn
16B-
2A}
=7
{8.Fn
16E
4Fn
4G
=8
4A
2A}
=9
{8.cn
16cn
4cn
4fn
=10
8.e
16e
2e}
=11
{8.d
16e
4fn
4e
=12
8.c#
16e
4.A}
{8A
=13
8.d
16e
4fn
4e
=14
4c#
2d}
=15
{8.cn
16cn
4cn
4fn
=16
8.e
16e
2e}
=17
{8.d
16e
4fn
4e
=18
8.c#
16e
4.A}
{8A
=19
8.d
16e
4fn
4e
=20
4c#
2d}
==
!!!AGN: Staende -, Studenten - Lied
!!!ONB: ESAC (Essen Associative Code) Database: ERK3
!!!AMT: simple triple
!!!AIN: vox
!!!EED: Helmut Schaffrath
!!!EEV: 1.0
*-
